X:113
T: Man gan niu(2)
N: C1607
O: China, Anhui, Jinzhai
S: III, 579]
R: Shange. Nann qing]
M: 2/4
L: 1/16
K: G
A2AGE4 | G2A2B2e2 | e2d2B2A2 | EGG2E4
E2G2A2B2 | e2edBdA2 | GE2GE2z2
GEE2G2G2 | B2B4G2 | A6B2 | G2E6
E2E2E4 | G2A2B4 | e2edB2A2 | A2G2E4
E2G2A2B2 | e2edBdA2 | G2E6
A2AGE4 | A2B4G2 | d2B2d2A2 | G2E6
E2G2A2B2 | e2ededBA | GE3-E2z2
GEE2G2G2 | A2B4G2 | d2B2d2A2 | G2E6

